src/images/price-tag.svg

<svg width="16" height="16" viewBox="0 0 16 16" fill="none" xmlns="http://www.w3.org/2000/svg">
<g clip-path="url(#clip0)">
<path d="M7.24316 11.7261C7.50205 11.7261 7.71191 11.5162 7.71191 11.2573C7.71191 10.9984 7.50205 10.7886 7.24316 10.7886C6.98428 10.7886 6.77441 10.9984 6.77441 11.2573C6.77441 11.5162 6.98428 11.7261 7.24316 11.7261Z" fill="#FFA63F"/>
<path d="M7.24316 6.72607C7.50205 6.72607 7.71191 6.51621 7.71191 6.25732C7.71191 5.99844 7.50205 5.78857 7.24316 5.78857C6.98428 5.78857 6.77441 5.99844 6.77441 6.25732C6.77441 6.51621 6.98428 6.72607 7.24316 6.72607Z" fill="#FFA63F"/>
<path d="M12.6222 4.4826C12.8052 4.66564 12.8052 4.96242 12.6222 5.14551C12.5306 5.23704 12.4107 5.28282 12.2907 5.28282C12.1707 5.28282 12.0508 5.23704 11.9593 5.14551L11.407 4.59326C11.4069 4.5932 11.4069 4.59317 11.4068 4.5931C11.4068 4.59304 11.4067 4.59301 11.4067 4.59295L10.8544 4.04067C10.6713 3.85763 10.6713 3.56085 10.8544 3.37776C11.0375 3.19473 11.3342 3.19473 11.5173 3.37776L11.7383 3.59873L13.548 1.78897L8.01773 1.36357C7.88126 1.35307 7.74708 1.40272 7.65033 1.4995L0.137297 9.01252C-0.0457656 9.19555 -0.0457656 9.49236 0.137297 9.67543L6.32448 15.8626C6.41239 15.9505 6.53161 15.9999 6.65592 15.9999C6.78023 15.9999 6.89945 15.9506 6.98736 15.8626L14.5004 8.34961C14.5972 8.25286 14.6468 8.11864 14.6363 7.9822L14.2109 2.45191L12.4012 4.26163L12.6222 4.4826ZM7.24305 4.85064C8.01845 4.85064 8.6493 5.48148 8.6493 6.25689C8.6493 7.0323 8.01845 7.66314 7.24305 7.66314C6.46764 7.66314 5.8368 7.0323 5.8368 6.25689C5.8368 5.48148 6.46764 4.85064 7.24305 4.85064ZM7.24305 12.6632C6.46764 12.6632 5.8368 12.0323 5.8368 11.2569C5.8368 10.4815 6.46764 9.85065 7.24305 9.85065C8.01845 9.85065 8.6493 10.4815 8.6493 11.2569C8.6493 12.0323 8.01845 12.6632 7.24305 12.6632ZM10.368 9.22564H4.11805C3.85917 9.22564 3.6493 9.01577 3.6493 8.75689C3.6493 8.49802 3.85917 8.28814 4.11805 8.28814H10.368C10.6269 8.28814 10.8368 8.49802 10.8368 8.75689C10.8368 9.01577 10.6269 9.22564 10.368 9.22564Z" fill="#FFA63F"/>
<path d="M15.8625 0.137518C15.6795 -0.0455137 15.3827 -0.0455137 15.1996 0.137518L13.5479 1.78933L13.7628 1.80586C13.9933 1.82358 14.1765 2.00677 14.1942 2.2373L14.2107 2.45224L15.8625 0.800424C16.0456 0.617393 16.0456 0.32058 15.8625 0.137518Z" fill="#FFA63F"/>
</g>
<defs>
<clipPath id="clip0">
<rect width="16" height="16" fill="white"/>
</clipPath>
</defs>
</svg>

<svg width="16" height="16" fill="none" xmlns="http://www.w3.org/2000/svg"><g clip-path="url(#clip0)" fill="#FFA63F"><path d="M7.243 11.726a.469.469 0 100-.937.469.469 0 000 .937zm0-5a.469.469 0 100-.937.469.469 0 000 .937z"/><path d="M12.622 4.483a.469.469 0 01-.663.663l-.552-.553-.553-.552a.469.469 0 11.663-.663l.221.22 1.81-1.809-5.53-.425a.469.469 0 00-.368.135L.137 9.014a.469.469 0 000 .662l6.187 6.188a.469.469 0 00.663 0L14.5 8.35a.469.469 0 00.136-.368l-.425-5.53-1.81 1.81.221.22zm-5.379.368c.775 0 1.406.63 1.406 1.406 0 .775-.63 1.406-1.406 1.406a1.407 1.407 0 010-2.812zm0 7.812c-.775 0-1.406-.63-1.406-1.406 0-.775.63-1.406 1.406-1.406.775 0 1.406.63 1.406 1.406 0 .775-.63 1.406-1.406 1.406zm3.125-3.437h-6.25a.469.469 0 010-.938h6.25a.469.469 0 110 .938z"/><path d="M15.863.138a.469.469 0 00-.663 0l-1.652 1.651.215.017c.23.018.414.2.431.431l.017.215L15.863.8a.469.469 0 000-.662z"/></g><defs><clipPath id="clip0"><path fill="#fff" d="M0 0h16v16H0z"/></clipPath></defs></svg>
